X: 278
T: Benim Adım Dertli Dolap
C: ?
O: Turkey
F: http://compmusic.upf.edu/node/140
N: ussak--ilahi--dolap--benim_adim--
N: makam= ussak
N: form= ilahi
N: usul= dolap = 12/8
M: 12/8
L: 1/16
K: C _2/4B   
Q: 1/4=120
%%MIDI tuningsystem comma53
G2c2 B2c4B2 c4 d3c B4  | A2B2 A2B4A2 B4 c3B A4  | \
w:  Be nim_ a dım  dert li  do *  lap    |  Su yum_ a kar  ya lap  ya *  lap    | 
G2c2 B2c4B2 c4 d3c B4  | 
w:  Böy le  emr_ ey le miş  ça *  lap    | 
A2B2 A2B4A2 B4 c3B A4  | G2c2 B2c4B2 c4 d3c B4  | \
w:  Der dim  var dır  i ni le *  rim    |  Be nim_ a dım  dert li  do *  lap    | 
A2B2 A2B4A2 B4 c3B A4  | 
w:  Su yum_ a kar  ya lap  ya *  lap    | 
G2c2 B2c4B2 c4 d3c B4  | A2B2 A2B4A2 B4 c3B A4  | |


